X: 1
T: Gan Ainm
M: 4/4
L: 1/8
R: reel
K: Edor
g2ef gbag|f2df edBA|G2EF GABc|1dB~B2 dBAB:|2dBAF GEE2:|
|:Be~e2 c'ebe|fbba fece|1fd~d2 BdAB|Ad~d2 dBAd:|2b3a fedc|dBBA FEE2:|
